src/frontend/assets/settings_icon_alt.svg

<svg width="24" height="24" viewBox="0 0 24 24" fill="none" xmlns="http://www.w3.org/2000/svg">
<path d="M22.5 18H11.6812C11.1047 16.6781 9.7875 15.75 8.25 15.75C6.7125 15.75 5.39531 16.6781 4.81875 18H1.5C0.671719 18 0 18.6717 0 19.5C0 20.3283 0.671719 21 1.5 21H4.81641C5.39531 22.3219 6.7125 23.25 8.25 23.25C9.7875 23.25 11.1042 22.3233 11.6836 21H22.5C23.3283 21 24 20.3283 24 19.5C24 18.6717 23.3297 18 22.5 18ZM8.25 21C7.42313 21 6.75 20.3269 6.75 19.5C6.75 18.6731 7.42313 18 8.25 18C9.07687 18 9.75 18.6731 9.75 19.5C9.75 20.3269 9.075 21 8.25 21ZM22.5 10.5H19.1836C18.6047 9.17813 17.2875 8.25 15.75 8.25C14.2125 8.25 12.8953 9.17813 12.3187 10.5H1.5C0.671719 10.5 0 11.1703 0 12C0 12.8297 0.671719 13.5 1.5 13.5H12.3187C12.8953 14.8219 14.2125 15.75 15.75 15.75C17.2875 15.75 18.6042 14.8233 19.1836 13.5H22.5C23.3283 13.5 24 12.8283 24 12C24 11.1717 23.3297 10.5 22.5 10.5ZM15.75 13.5C14.9231 13.5 14.25 12.8269 14.25 12C14.25 11.1731 14.9231 10.5 15.75 10.5C16.5769 10.5 17.25 11.1731 17.25 12C17.25 12.8269 16.575 13.5 15.75 13.5ZM1.5 6H6.31875C6.89531 7.32188 8.2125 8.25 9.75 8.25C11.2875 8.25 12.6042 7.32328 13.1836 6H22.5C23.3283 6 24 5.32828 24 4.5C24 3.67172 23.3283 3 22.5 3H13.1813C12.6047 1.67672 11.2875 0.75 9.75 0.75C8.2125 0.75 6.89531 1.67672 6.31875 3H1.5C0.671719 3 0 3.67172 0 4.5C0 5.32828 0.671719 6 1.5 6ZM9.75 3C10.5769 3 11.25 3.67313 11.25 4.5C11.25 5.32687 10.5769 6 9.75 6C8.92313 6 8.25 5.32687 8.25 4.5C8.25 3.67313 8.925 3 9.75 3Z" fill="#607276"/>
</svg>

<svg xmlns="http://www.w3.org/2000/svg" width="24" height="24" fill="none" viewBox="0 0 24 24"><path fill="#607276" d="M22.5 18H11.681a3.74 3.74 0 0 0-3.431-2.25A3.74 3.74 0 0 0 4.819 18H1.5a1.5 1.5 0 0 0 0 3h3.316a3.75 3.75 0 0 0 3.434 2.25A3.75 3.75 0 0 0 11.684 21H22.5a1.5 1.5 0 0 0 0-3M8.25 21c-.827 0-1.5-.673-1.5-1.5s.673-1.5 1.5-1.5 1.5.673 1.5 1.5-.675 1.5-1.5 1.5M22.5 10.5h-3.316a3.744 3.744 0 0 0-6.865 0H1.5a1.5 1.5 0 1 0 0 3h10.819a3.744 3.744 0 0 0 6.865 0H22.5a1.5 1.5 0 0 0 0-3m-6.75 3c-.827 0-1.5-.673-1.5-1.5s.673-1.5 1.5-1.5 1.5.673 1.5 1.5-.675 1.5-1.5 1.5M1.5 6h4.819a3.743 3.743 0 0 0 6.865 0H22.5a1.5 1.5 0 0 0 0-3h-9.319A3.741 3.741 0 0 0 6.32 3H1.5a1.5 1.5 0 0 0 0 3m8.25-3c.827 0 1.5.673 1.5 1.5S10.577 6 9.75 6s-1.5-.673-1.5-1.5S8.925 3 9.75 3"/></svg>
